X:436
T: Chazi zhai lai yuan dingdang
N: C1471
O: China, Hunan, Lingxian
S: I, 548]
R: Shange, Kejia shange]
M: 2/4
L: 1/16
K: E
B2B2e2ec | e2e2g4 |
e2c2B3G | e2c2B3G |
g2g2e2ee | G2G2e2e2 |
c2g2e2e2 | ccccB4 | G4z4

